public/nuxt_images/logo_horizontal.svg

<svg width="433" height="113" viewBox="0 0 433 113" fill="none" xmlns="http://www.w3.org/2000/svg">
<path d="M71.1809 49.0741C71.1809 49.0741 71.1809 49.0179 71.1809 48.9804C71.1436 45.9451 69.5181 43.1345 66.9023 41.6356L53.8236 34.0659C52.6091 33.3539 51.2078 32.9791 49.7692 32.9417C49.5637 32.9417 49.3768 32.9417 49.1713 32.9604C48.1624 33.0166 47.2095 33.204 46.3127 33.56C45.9577 33.7099 45.6214 33.8785 45.2851 34.0659L37.3257 38.6751L32.3745 41.5419C32.0755 41.7105 31.7953 41.8979 31.5337 42.104C31.5337 42.104 31.4216 42.179 31.4029 42.179C30.3566 42.9472 29.5345 43.9402 28.9553 45.0457C28.918 45.1206 28.8619 45.1956 28.8245 45.2705C28.7872 45.3455 28.7498 45.4204 28.7311 45.4954C28.208 46.6383 27.9277 47.9312 27.9277 49.299V63.8014V64.0262C27.9277 64.2885 27.9464 64.5696 27.9838 64.9068C27.9838 65.0755 28.0211 65.2628 28.0585 65.4689C28.208 66.4807 28.5443 67.4363 29.0114 68.2982C29.7774 69.7222 30.9171 70.9026 32.3184 71.7083L45.1729 79.1469C45.64 79.4092 45.995 79.5778 46.35 79.7277C47.2469 80.1025 48.1997 80.3086 49.1713 80.346C49.2087 80.346 49.246 80.346 49.2834 80.346C50.1989 80.3648 51.1331 80.2711 52.0299 79.99C52.6465 79.8027 53.2631 79.5404 53.8236 79.2031L66.8089 71.6896C68.1355 70.9214 69.2378 69.8159 70.0039 68.4856C70.7699 67.1553 71.1809 65.6376 71.1809 64.1199V49.0741Z" fill="#000091"/>
<path d="M27.9261 76.9126V95.4405V100.777L48.5502 112.718V88.854L43.7435 86.0739L27.9261 76.9126Z" fill="#000091"/>
<path d="M68.4286 40.4629C68.4286 40.4629 68.5973 40.5935 68.6722 40.6495C68.6722 40.6495 68.7097 40.6681 68.7285 40.6868C68.8597 40.7801 68.9909 40.892 69.1221 40.9853C69.1221 40.9853 69.1408 41.004 69.1595 41.0226C69.1783 41.0413 69.2158 41.06 69.2345 41.0786C69.3845 41.2092 69.5531 41.3398 69.6844 41.4705C69.7218 41.5078 69.7593 41.5451 69.7968 41.5824C69.8905 41.6757 69.9842 41.769 70.078 41.8623C70.1154 41.8996 70.1529 41.9369 70.1717 41.9556C70.3029 42.1048 70.4341 42.2541 70.5653 42.4034C70.6402 42.478 70.6965 42.5713 70.7527 42.6459C70.7902 42.7019 70.8464 42.7579 70.8839 42.8139C70.9214 42.8512 70.9589 42.9072 70.9964 42.9445C71.1276 43.1124 71.24 43.299 71.3525 43.4856C71.4649 43.6722 71.5774 43.8401 71.6899 44.0267C71.8023 44.2319 71.896 44.4371 72.0085 44.6424C72.1022 44.829 72.1772 44.9969 72.2521 45.1835C72.3271 45.3514 72.3834 45.538 72.4396 45.7059C72.4396 45.7432 72.4583 45.7619 72.4771 45.7992C72.4771 45.8365 72.4958 45.8739 72.5145 45.8925C72.5708 46.0604 72.627 46.2284 72.6832 46.3963C72.7582 46.6762 72.8144 46.956 72.8519 47.2546C72.8519 47.2546 72.8519 47.2732 72.8519 47.2919C72.8519 47.3292 72.8707 47.3852 72.8707 47.4225C72.8707 47.5158 72.9082 47.5904 72.9269 47.6837C72.9831 48.1129 73.0206 48.5607 73.0206 49.0085V63.5061L75.907 65.1667V41.3025L55.1398 29.3611V32.7756L67.7913 40.0524C67.9975 40.1644 68.2037 40.295 68.4098 40.4442L68.4286 40.4629Z" fill="#000091"/>
<path d="M0 29.3611V53.3208L20.7673 65.31V41.3503L0 29.3611Z" fill="#000091"/>
<path d="M70.9699 70.3487C70.8023 70.5925 70.6159 70.7989 70.4296 71.0239C70.2992 71.174 70.1688 71.324 70.0384 71.474C69.8335 71.6991 69.5913 71.8867 69.3677 72.093C69.2559 72.1868 69.1441 72.2993 69.0323 72.4118L72.5722 74.4749C72.8516 74.6437 73.0379 74.9438 73.0379 75.2814V95.2933L75.907 96.9626V72.9745L71.119 70.1799C71.119 70.1799 71.0258 70.2925 70.9886 70.3487H70.9699Z" fill="#000091"/>
<path d="M45.1028 27.7707V32.0817C45.1028 32.0817 45.2331 32.0444 45.3076 32.007C45.6799 31.8391 46.0894 31.7084 46.4802 31.5965C46.7967 31.5031 47.1131 31.4285 47.4482 31.3725C47.7646 31.3165 48.0624 31.2605 48.3789 31.2232C48.4905 31.2232 48.5836 31.1859 48.6953 31.1672V25.5499L28.0712 13.606V17.3571L44.6375 26.9495C44.9167 27.1175 45.1028 27.4161 45.1028 27.752V27.7707Z" fill="#000091"/>
<path d="M0 84.8886L20.7673 96.8176V72.941L0 61.012V84.8886Z" fill="#000091"/>
<path d="M98.3929 84.8886V61.012L77.7689 72.941V96.8176L98.3929 84.8886Z" fill="#000091"/>
<path d="M50.4147 112.718L71.182 100.777V95.7577V76.9126L50.4147 88.854V112.718Z" fill="#000091"/>
<path d="M22.628 65.31L26.0343 63.3243V49.1245C26.0343 45.865 27.5792 42.7553 30.1852 40.7883C30.1852 40.7883 30.2224 40.7696 30.241 40.7508C30.241 40.7508 30.2596 40.7508 30.2782 40.7321C30.3154 40.7134 30.3527 40.6759 30.3713 40.6759C30.7063 40.4324 30.9483 40.2638 31.2275 40.0952L43.252 33.1077V29.3611L22.628 41.3503V65.31Z" fill="#000091"/>
<path d="M98.3929 53.3208V29.3611L77.7689 41.3503V65.31L98.3929 53.3208Z" fill="#000091"/>
<path d="M50.9055 31.1995C51.1102 31.2181 51.2964 31.2739 51.5011 31.2926C51.7431 31.3298 52.0037 31.3856 52.2457 31.4415C52.469 31.4974 52.6738 31.5718 52.8785 31.6463C53.0461 31.7021 53.2136 31.7394 53.3811 31.7952V27.718C53.3811 27.3829 53.5672 27.085 53.8464 26.9175L71.3248 16.8268V13.606L50.7007 25.5211V31.1622C50.7007 31.1622 50.8496 31.1995 50.9241 31.1995H50.9055Z" fill="#000091"/>
<path d="M26.2208 74.8171C26.2769 74.7241 26.3705 74.6497 26.464 74.5753C26.4827 74.5753 26.5014 74.5381 26.5202 74.5195L30.0755 72.4736C30.0755 72.4736 29.9258 72.3248 29.8323 72.2504C29.5329 71.99 29.2335 71.7296 28.9528 71.432C28.8218 71.3018 28.7095 71.1531 28.5973 71.0229C28.3727 70.7625 28.1669 70.5021 27.9797 70.2231C27.9423 70.1673 27.8862 70.1115 27.83 70.0371L27.7365 70.0929L22.628 73.0316V96.8197L26.0523 94.8482V75.3192C26.0523 75.1704 26.1085 75.0217 26.1646 74.8915C26.1646 74.8543 26.202 74.8357 26.2208 74.7985V74.8171Z" fill="#000091"/>
<path d="M42.3948 27.7056L21.7085 15.7559L1.00345 27.7056L21.7085 39.674L42.3948 27.7056Z" fill="#000091"/>
<path d="M70.4679 11.9684L49.7006 0L28.9333 11.9684L49.7006 23.9182L70.4679 11.9684Z" fill="#000091"/>
<path d="M75.4661 38.8699L76.8303 39.674L97.5353 27.7056L76.8303 15.7559L72.7565 18.1121L56.1439 27.7056L64.8894 32.7735L75.4661 38.8699Z" fill="#000091"/>
<path d="M76.3745 67.6639L72.9193 65.675C72.9007 65.8051 72.8446 65.9538 72.826 66.0839C72.7699 66.3999 72.6952 66.7159 72.6205 67.0133C72.5645 67.1992 72.4898 67.3851 72.4337 67.5523C72.3404 67.8312 72.247 68.0914 72.1162 68.3702C72.0789 68.4446 72.0602 68.5003 72.0415 68.5747L76.8414 71.3256L97.5352 59.4295L94.5656 57.7195L77.327 67.6267C77.1776 67.701 77.0282 67.7568 76.8601 67.7568C76.692 67.7568 76.5426 67.7196 76.3932 67.6267L76.3745 67.6639Z" fill="#000091"/>
<path d="M54.6699 80.7913C53.9785 81.1816 53.231 81.4976 52.4835 81.7393C51.9603 81.9065 51.4184 81.9995 50.8765 82.0738C50.6896 82.0924 50.5027 82.0924 50.3159 82.111C50.0356 82.1296 49.774 82.1668 49.4937 82.1668C49.3442 82.1668 49.1947 82.1668 49.0452 82.1668C49.0452 82.1668 49.0265 82.1668 49.0078 82.1668C48.4098 82.1482 47.8305 82.0738 47.2512 81.9437C46.6719 81.8136 46.1113 81.6463 45.5694 81.4233C45.1396 81.2374 44.7098 81.0329 44.28 80.8099L31.7598 73.6165L30.7694 74.1927L28.7886 75.3265L49.4937 87.2226L51.7361 85.9215L53.8477 84.7133L58.0709 82.2783L70.18 75.3265L68.1992 74.1927L67.2088 73.6165L54.6886 80.8099L54.6699 80.7913Z" fill="#000091"/>
<path d="M26.1978 65.7122C26.1978 65.5821 26.1604 65.4705 26.1418 65.3404L22.1607 67.6267C22.0112 67.701 21.8617 67.7568 21.6935 67.7568C21.5253 67.7568 21.3758 67.7196 21.2262 67.6267L3.97519 57.7195L1.00345 59.4295L21.7122 71.3256L26.9267 68.333C26.609 67.5895 26.366 66.7345 26.2165 65.7865C26.2165 65.7865 26.2165 65.7493 26.2165 65.7308L26.1978 65.7122Z" fill="#000091"/>
<path d="M397.654 45.9121H402.196L415.242 78.1325L428.217 45.9121H432.83L418.053 82.2411H412.431L397.654 45.9121Z" fill="#000091"/>
<path d="M387.679 66.8157V45.9121H391.859V66.7436C391.859 77.5558 385.66 83.6827 376.362 83.6827C366.991 83.6827 360.72 77.5558 360.72 66.7436V45.9121H364.973V66.8157C364.973 75.033 369.514 79.6462 376.362 79.6462C383.065 79.6462 387.679 75.033 387.679 66.8157Z" fill="#000091"/>
<path d="M333.432 44.4707C345.11 44.4707 352.966 53.6971 352.966 64.0768C352.966 74.4565 345.11 83.683 333.432 83.683C321.827 83.683 313.97 74.4565 313.97 64.0768C313.97 53.6971 321.827 44.4707 333.432 44.4707ZM333.504 79.6464C342.082 79.6464 348.425 72.2941 348.425 64.0768C348.425 55.7154 342.082 48.5073 333.504 48.5073C324.638 48.5073 318.367 55.7875 318.367 64.0768C318.367 72.3662 324.638 79.6464 333.504 79.6464Z" fill="#000091"/>
<path d="M276.547 88.9447C276.547 85.1965 278.421 82.2411 282.169 79.5021C280.367 78.2767 279.502 76.3305 279.502 74.3843C279.502 71.5731 281.232 69.1223 284.043 67.4645C280.8 65.0858 278.926 61.3376 278.926 57.301C278.926 50.4533 284.332 44.3984 292.693 44.3984C295.216 44.3984 297.523 44.9751 299.469 45.9122H313.092V49.6604H304.01C305.596 51.8228 306.533 54.4898 306.533 57.301C306.533 64.1487 301.127 70.2036 292.693 70.2036C290.531 70.2036 288.585 69.7711 286.855 69.1223C284.692 70.3477 283.539 72.1498 283.539 73.7355C283.539 75.3934 284.332 76.6909 286.999 76.6909H298.099C307.974 76.6909 312.083 81.232 312.083 87.5031C312.083 94.8554 304.587 100.261 293.919 100.261C283.683 100.261 276.547 95.9366 276.547 88.9447ZM292.765 66.5995C298.892 66.5995 302.28 62.2025 302.28 57.301C302.28 52.2553 298.892 48.0025 292.765 48.0025C286.494 48.0025 283.106 52.2553 283.106 57.301C283.106 62.2746 286.494 66.5995 292.765 66.5995ZM280.8 88.5843C280.8 93.4858 286.134 96.5853 293.847 96.5853C302.208 96.5853 307.83 93.1975 307.83 87.7193C307.83 83.7549 305.668 80.5833 297.955 80.5833H285.918C282.602 82.8178 280.8 85.3406 280.8 88.5843Z" fill="#000091"/>
<path d="M250.35 83.3226C243.07 83.3226 238.097 79.1418 238.097 72.4383C238.097 66.9601 242.349 62.8514 250.134 61.554L261.235 59.6799V58.7428C261.235 54.9225 258.351 52.4717 254.171 52.4717C250.639 52.4717 247.9 54.1296 245.953 56.7966L239.25 51.6788C242.493 47.2098 247.827 44.4707 254.459 44.4707C264.983 44.4707 270.389 50.7418 270.389 58.7428V82.2413H261.235V78.7093C258.928 81.5205 254.603 83.3226 250.35 83.3226ZM247.179 72.0058C247.179 74.4565 249.125 76.0423 252.224 76.0423C256.405 76.0423 259.433 74.0961 261.235 71.2129V66.0951L252.585 67.5367C248.765 68.1855 247.179 69.7713 247.179 72.0058Z" fill="#000091"/>
<path d="M213.752 68.9793V54.1306H206.976V45.9133H213.752V36.8311H222.978V45.9133H234.079V54.1306H222.978V68.9793C222.978 73.0159 225.141 74.6017 228.745 74.6017C231.268 74.6017 232.926 74.3134 234.151 73.8088V81.8098C232.349 82.6027 230.186 82.9631 227.159 82.9631C218.077 82.9631 213.752 77.8453 213.752 68.9793Z" fill="#000091"/>
<path d="M183.087 83.3226C175.807 83.3226 170.833 79.1418 170.833 72.4383C170.833 66.9601 175.086 62.8514 182.871 61.554L193.972 59.6799V58.7428C193.972 54.9225 191.088 52.4717 186.908 52.4717C183.376 52.4717 180.636 54.1296 178.69 56.7966L171.987 51.6788C175.23 47.2098 180.564 44.4707 187.196 44.4707C197.72 44.4707 203.126 50.7418 203.126 58.7428V82.2413H193.972V78.7093C191.665 81.5205 187.34 83.3226 183.087 83.3226ZM179.916 72.0058C179.916 74.4565 181.862 76.0423 184.961 76.0423C189.142 76.0423 192.169 74.0961 193.972 71.2129V66.0951L185.322 67.5367C181.501 68.1855 179.916 69.7713 179.916 72.0058Z" fill="#000091"/>
<path d="M125.115 64.0762C125.115 53.4802 132.107 44.4701 143.568 44.4701C148.47 44.4701 152.002 45.9838 154.813 48.795V28.1797H164.039V82.2407H154.813V79.3574C152.002 82.1686 148.47 83.6823 143.568 83.6823C132.107 83.6823 125.115 74.6721 125.115 64.0762ZM134.702 64.0762C134.702 70.4194 138.667 75.0326 144.866 75.0326C148.974 75.0326 152.362 73.3026 154.813 69.9869V58.1655C152.362 54.8498 148.974 53.1198 144.866 53.1198C138.667 53.1198 134.702 57.733 134.702 64.0762Z" fill="#000091"/>
</svg>

<svg xmlns="http://www.w3.org/2000/svg" width="433" height="113" fill="none" viewBox="0 0 433 113"><path fill="#000091" d="M71.18 49.074v-.094c-.036-3.035-1.662-5.845-4.278-7.344l-13.078-7.57c-1.215-.712-2.616-1.087-4.055-1.124-.205 0-.392 0-.598.018-1.009.057-1.962.244-2.858.6-.355.15-.692.319-1.028.506l-7.96 4.61-4.95 2.866q-.45.253-.841.562s-.112.075-.131.075a8.36 8.36 0 0 0-2.448 2.867c-.037.075-.093.15-.13.224s-.075.15-.094.225a9.1 9.1 0 0 0-.803 3.804v14.727c0 .263.018.544.056.88 0 .17.037.357.074.563a8.6 8.6 0 0 0 .953 2.83 8.65 8.65 0 0 0 3.307 3.41l12.855 7.438c.467.262.822.43 1.177.58.897.376 1.85.582 2.821.619h.112c.916.019 1.85-.075 2.747-.356a8 8 0 0 0 1.794-.787l12.985-7.513a8.792 8.792 0 0 0 4.372-7.57zM27.926 76.913v23.864l20.624 11.941V88.854l-4.806-2.78z"/><path fill="#000091" d="m68.429 40.463.243.187s.038.018.056.037c.132.093.263.205.394.298l.037.038c.02.018.057.037.075.056.15.13.32.26.45.392l.394.391.094.094.393.447c.075.075.132.168.188.243.037.056.093.112.13.168.038.037.076.093.113.13.132.168.244.355.357.542.112.186.224.354.337.54.112.206.206.411.319.616.093.187.168.355.243.541.075.168.131.355.188.523 0 .037.018.056.037.093 0 .038.019.075.037.093l.17.504c.074.28.13.56.168.859v.037c0 .037.019.093.019.13 0 .094.037.168.056.262.056.429.094.877.094 1.325v14.497l2.886 1.66V41.304L55.14 29.36v3.415l12.651 7.276q.31.168.619.392zM0 29.361v23.96L20.767 65.31V41.35zM70.97 70.349c-.168.243-.354.45-.54.675l-.392.45c-.204.225-.447.413-.67.619a5 5 0 0 0-.336.319l3.54 2.063c.28.169.466.469.466.806v20.012l2.869 1.67V72.975l-4.788-2.795s-.093.112-.13.169zM45.103 27.77v4.312s.13-.038.205-.075a9 9 0 0 1 1.172-.41c.317-.094.633-.169.968-.225.317-.055.614-.111.93-.149.112 0 .206-.037.317-.056V25.55L28.071 13.606v3.751l16.567 9.593c.279.168.465.466.465.802zM0 84.889l20.767 11.929V72.94L0 61.012zM98.393 84.889V61.012L77.769 72.941v23.877z"/><path fill="#000091" d="m50.415 112.718 20.767-11.941V76.913L50.415 88.854zM22.628 65.31l3.406-1.986v-14.2c0-3.259 1.545-6.369 4.151-8.336 0 0 .037-.018.056-.037 0 0 .019 0 .037-.019.037-.019.075-.056.093-.056.335-.244.577-.412.857-.58l12.024-6.988V29.36l-20.624 11.99zM98.393 53.32V29.362l-20.624 11.99V65.31zM50.906 31.2c.204.018.39.074.595.093.242.037.503.093.745.149.223.055.428.13.633.204.167.056.335.093.502.15v-4.078c0-.335.186-.633.465-.8l17.479-10.091v-3.221L50.7 25.521v5.641s.149.038.223.038zM26.22 74.817c.057-.093.15-.167.244-.242.019 0 .037-.037.056-.056l3.556-2.045s-.15-.15-.244-.224c-.3-.26-.599-.52-.88-.818-.13-.13-.243-.279-.355-.41-.224-.26-.43-.52-.617-.799-.038-.056-.094-.111-.15-.186l-.093.056-5.109 2.939V96.82l3.424-1.972V75.32c0-.149.056-.297.113-.428 0-.037.037-.055.056-.093zM42.395 27.706l-20.687-11.95-20.705 11.95L21.71 39.674zM70.468 11.968 49.7 0 28.933 11.968l20.768 11.95z"/><path fill="#000091" d="m75.466 38.87 1.364.804 20.705-11.968-20.705-11.95-4.073 2.356-16.613 9.594 8.745 5.067zM76.375 67.664l-3.456-1.989c-.018.13-.074.279-.093.409-.056.316-.13.632-.205.93-.056.185-.131.371-.187.538-.094.28-.187.54-.318.818a1 1 0 0 0-.075.205l4.8 2.75L97.535 59.43l-2.97-1.71-17.238 9.908c-.15.074-.299.13-.467.13a.85.85 0 0 1-.467-.13zM54.67 80.791c-.692.39-1.439.707-2.187.948-.523.167-1.065.26-1.606.335-.187.018-.374.018-.561.037-.28.019-.542.056-.822.056h-.486a9.3 9.3 0 0 1-1.757-.223 10.4 10.4 0 0 1-1.682-.52q-.645-.28-1.289-.614l-12.52-7.193-.99.576-1.981 1.133 20.705 11.897 2.242-1.302 2.112-1.208 4.223-2.435 12.109-6.952-1.98-1.133-.991-.576-12.52 7.193zM26.198 65.712c0-.13-.038-.242-.056-.372l-3.981 2.287c-.15.074-.3.13-.468.13a.85.85 0 0 1-.467-.13L3.976 57.72l-2.973 1.71 20.71 11.896 5.214-2.993a10.8 10.8 0 0 1-.71-2.546v-.056zM397.654 45.912h4.542l13.046 32.22 12.975-32.22h4.613l-14.777 36.33h-5.622zM387.679 66.816V45.912h4.18v20.832c0 10.812-6.199 16.939-15.497 16.939-9.371 0-15.642-6.127-15.642-16.94v-20.83h4.253v20.903c0 8.217 4.541 12.83 11.389 12.83 6.703 0 11.317-4.613 11.317-12.83M333.432 44.47c11.678 0 19.534 9.227 19.534 19.607s-7.856 19.606-19.534 19.606c-11.605 0-19.462-9.227-19.462-19.606s7.857-19.606 19.462-19.606m.072 35.176c8.578 0 14.921-7.352 14.921-15.57 0-8.36-6.343-15.569-14.921-15.569-8.866 0-15.137 7.28-15.137 15.57s6.271 15.57 15.137 15.57M276.547 88.945c0-3.748 1.874-6.704 5.622-9.443-1.802-1.225-2.667-3.171-2.667-5.118 0-2.81 1.73-5.262 4.541-6.92-3.243-2.378-5.117-6.126-5.117-10.163 0-6.848 5.406-12.903 13.767-12.903 2.523 0 4.83.577 6.776 1.514h13.623v3.748h-9.082a12.94 12.94 0 0 1 2.523 7.641c0 6.848-5.406 12.903-13.84 12.903-2.162 0-4.108-.433-5.838-1.082-2.163 1.226-3.316 3.028-3.316 4.614 0 1.657.793 2.955 3.46 2.955h11.1c9.875 0 13.984 4.541 13.984 10.812 0 7.352-7.496 12.758-18.164 12.758-10.236 0-17.372-4.324-17.372-11.316M292.765 66.6c6.127 0 9.515-4.397 9.515-9.299 0-5.046-3.388-9.299-9.515-9.299-6.271 0-9.659 4.253-9.659 9.299 0 4.974 3.388 9.299 9.659 9.299M280.8 88.584c0 4.902 5.334 8.001 13.047 8.001 8.361 0 13.983-3.387 13.983-8.866 0-3.964-2.162-7.136-9.875-7.136h-12.037c-3.316 2.235-5.118 4.758-5.118 8.001M250.35 83.323c-7.28 0-12.253-4.181-12.253-10.885 0-5.478 4.252-9.587 12.037-10.884l11.101-1.874v-.937c0-3.82-2.884-6.271-7.064-6.271-3.532 0-6.271 1.658-8.218 4.325l-6.703-5.118c3.243-4.47 8.577-7.208 15.209-7.208 10.524 0 15.93 6.27 15.93 14.272V82.24h-9.154V78.71c-2.307 2.811-6.632 4.614-10.885 4.614m-3.171-11.317c0 2.45 1.946 4.036 5.045 4.036 4.181 0 7.209-1.946 9.011-4.83v-5.117l-8.65 1.442c-3.82.648-5.406 2.234-5.406 4.469M213.752 68.98V54.13h-6.776v-8.217h6.776v-9.082h9.226v9.082h11.101v8.218h-11.101v14.848c0 4.037 2.163 5.623 5.767 5.623 2.523 0 4.181-.289 5.406-.793v8c-1.802.794-3.965 1.154-6.992 1.154-9.082 0-13.407-5.118-13.407-13.984M183.087 83.323c-7.28 0-12.254-4.181-12.254-10.885 0-5.478 4.253-9.587 12.038-10.884l11.101-1.874v-.937c0-3.82-2.884-6.271-7.064-6.271-3.532 0-6.272 1.658-8.218 4.325l-6.703-5.118c3.243-4.47 8.577-7.208 15.209-7.208 10.524 0 15.93 6.27 15.93 14.272V82.24h-9.154V78.71c-2.307 2.811-6.632 4.614-10.885 4.614m-3.171-11.317c0 2.45 1.946 4.036 5.045 4.036 4.181 0 7.208-1.946 9.011-4.83v-5.117l-8.65 1.442c-3.821.648-5.406 2.234-5.406 4.469M125.115 64.076c0-10.596 6.992-19.606 18.453-19.606 4.902 0 8.434 1.514 11.245 4.325V28.18h9.226v54.06h-9.226v-2.883c-2.811 2.812-6.343 4.325-11.245 4.325-11.461 0-18.453-9.01-18.453-19.606m9.587 0c0 6.343 3.965 10.957 10.164 10.957 4.108 0 7.496-1.73 9.947-5.046V58.166c-2.451-3.316-5.839-5.046-9.947-5.046-6.199 0-10.164 4.613-10.164 10.956"/></svg>
